src/assets/icon-32-key-up.svg

<svg viewBox="0 0 32 32" xmlns="http://www.w3.org/2000/svg" fill-rule="evenodd" clip-rule="evenodd" stroke-linejoin="round" stroke-miterlimit="1.414"><path d="M23.5 1C27.639 1 31 4.361 31 8.5v15c0 4.139-3.361 7.5-7.5 7.5h-15A7.504 7.504 0 0 1 1 23.5v-15C1 4.361 4.361 1 8.5 1h15zm-1 2h-13A6.503 6.503 0 0 0 3 9.5v13C3 26.087 5.913 29 9.5 29h13c3.587 0 6.5-2.913 6.5-6.5v-13C29 5.913 26.088 3 22.5 3z" fill="#fff"/><path d="M8 16l1.41 1.41L15 11.83V24h2V11.83l5.59 5.58L24 16l-8-8-8 8z" fill="#fff" fill-rule="nonzero"/></svg>

<?xml version="1.0" encoding="UTF-8" standalone="no"?>
<!DOCTYPE svg PUBLIC "-//W3C//DTD SVG 1.1//EN" "http://www.w3.org/Graphics/SVG/1.1/DTD/svg11.dtd">
<svg width="100%" height="100%" viewBox="0 0 32 32" version="1.1" xmlns="http://www.w3.org/2000/svg" xmlns:xlink="http://www.w3.org/1999/xlink" xml:space="preserve" style="fill-rule:evenodd;clip-rule:evenodd;stroke-linejoin:round;stroke-miterlimit:1.41421;">
    <g id="arrow.-copy" transform="matrix(-1,0,0,1,32,0)">
        <g transform="matrix(-1,0,0,1,32,0)">
            <path d="M23.5,1C27.639,1 31,4.361 31,8.5L31,23.5C31,27.639 27.639,31 23.5,31L8.5,31C4.361,31 1,27.639 1,23.5L1,8.5C1,4.361 4.361,1 8.5,1L23.5,1ZM22.5,3L9.5,3C5.912,3 3,5.913 3,9.5L3,22.5C3,26.087 5.913,29 9.5,29L22.5,29C26.087,29 29,26.087 29,22.5L29,9.5C29,5.913 26.088,3 22.5,3Z" style="fill:white;"/>
        </g>
        <g id="Shape" transform="matrix(2.22045e-16,-1,-1,-2.22045e-16,32,32)">
            <path d="M16,8L14.59,9.41L20.17,15L8,15L8,17L20.17,17L14.59,22.59L16,24L24,16L16,8Z" style="fill:white;fill-rule:nonzero;"/>
        </g>
    </g>
</svg>
